X: 1
T:The Children
M:C
L:1/8
Q:80
C:
S:March
K:HP
[| {g}A2{GdGe}Aa{fg}f2{g}ed|
{g}B/2d3/2{e}G{d}B{G}A2-AB|
{g}A2{GdGe}Aa{f}g3/2f/2{gef}ed|  !
{g}f/2a3/2{f}gf{gef}e2-eg|
{g}A2{GdGe}Aa{fg}f2{g}ed|
{g}B/2d3/2{e}G{d}B{G}A2-Af|  !
{gf}g3/2f/2{g}ed{gcd}c{e}A{d}c/2e3/2|
{g}f/2a3/2{f}ge{Gdc}d2-d|]
A[|  !
{g}f/2a3/2{fg}fA{g}A3/2g/2{a}eA|
{g}B/2d3/2{e}G{d}B{G}A2-Ad|
{g}B/2{d}G3/2{g}B/2d3/2{gf}g3/2f/2{gef}ed|  !
{g}f/2a3/2{f}gf{gef}e2-eg|
{g}f/2a3/2{fg}fA{g}A3/2g/2{a}eA|
{g}B/2d3/2{e}G{d}B{G}A2-Af|  !
{gf}g3/2f/2{g}ed{gcd}c{e}A{d}c/2e3/2|
{g}f/2a3/2{f}ge{Gdc}d2-d|]
